X: 1
T:Xa fun a Marín
M:3/4
L:1/4
Q:200
C:Trad.
R:Jota
B:Leccións de Gaita. OTERO COVELO
K:C
ED |: EFG- | G ED | EFG- | G AG |
FEF- | F GF | EDE- |1 EED :|2 E3 |: E2 F | G3 |
A2G | B2A | G3 | A2G | B2A | G2F |E4 :||

